build/service/PlaySolid.svg

<svg xmlns="http://www.w3.org/2000/svg" fill="none" viewBox="0 0 24 24" focusable="false"><path d="M0 0H24V24H0z"/><path fill="#74767B" fill-rule="evenodd" d="M12 21C16.9706 21 21 16.9706 21 12C21 7.02944 16.9706 3 12 3C7.02944 3 3 7.02944 3 12C3 16.9706 7.02944 21 12 21ZM9.51996 9.55906C9.51996 8.49659 10.7253 7.88279 11.5846 8.50771L14.9409 10.9487C15.6547 11.4678 15.6547 12.5322 14.9409 13.0514L11.5846 15.4923C10.7253 16.1172 9.51996 15.5034 9.51996 14.441L9.51996 9.55906Z"/></svg>

<svg xmlns="http://www.w3.org/2000/svg" fill="none" viewBox="0 0 24 24" focusable="false"><path fill="#74767B" fill-rule="evenodd" d="M12 21a9 9 0 0 0 9-9c0-4.98-4.03-9-9-9-4.98 0-9 4.02-9 9 0 4.97 4.02 9 9 9M9.52 9.55c0-1.06 1.2-1.67 2.06-1.05l3.36 2.44c.71.52.71 1.59 0 2.11l-3.36 2.44c-.86.62-2.06.01-2.06-1.05z"/></svg>
